Sources/FrostedUI/Resources/Icons.xcassets/plus12.imageset/plus-12.svg

<svg width="12" height="12" viewBox="0 0 12 12" fill="none" xmlns="http://www.w3.org/2000/svg" data-fui-icon="true">
  <path
    d="M6 1C6.41421 1 6.75 1.33579 6.75 1.75V5.25H10.25C10.6642 5.25 11 5.58579 11 6C11 6.41421 10.6642 6.75 10.25 6.75H6.75V10.25C6.75 10.6642 6.41421 11 6 11C5.58579 11 5.25 10.6642 5.25 10.25V6.75H1.75C1.33579 6.75 1 6.41421 1 6C1 5.58579 1.33579 5.25 1.75 5.25H5.25V1.75C5.25 1.33579 5.58579 1 6 1Z"
    fill="currentColor"
  />
</svg>

<svg xmlns="http://www.w3.org/2000/svg" width="12" height="12" fill="none" data-fui-icon="true" viewBox="0 0 12 12"><path fill="currentColor" d="M6 1a.75.75 0 0 1 .75.75v3.5h3.5a.75.75 0 0 1 0 1.5h-3.5v3.5a.75.75 0 0 1-1.5 0v-3.5h-3.5a.75.75 0 0 1 0-1.5h3.5v-3.5A.75.75 0 0 1 6 1"/></svg>
